packages/icons/svgs/duotone/Source=hourglass.svg

<svg width="24" height="24" viewBox="0 0 24 24" fill="none" xmlns="http://www.w3.org/2000/svg">
<path opacity="0.55" d="M5.58334 22.0833C5.58334 22.0833 8.33334 14.75 12 14.75C15.6667 14.75 18.4167 22.0833 18.4167 22.0833H5.58334Z" fill="black" style="fill:black;fill-opacity:1;"/>
<path fill-rule="evenodd" clip-rule="evenodd" d="M2.83334 1.91667C2.83334 1.41041 3.24375 1 3.75001 1H20.25C20.7563 1 21.1667 1.41041 21.1667 1.91667C21.1667 2.42293 20.7563 2.83333 20.25 2.83333H3.75001C3.24375 2.83333 2.83334 2.42293 2.83334 1.91667Z" fill="black" style="fill:black;fill-opacity:1;"/>
<path fill-rule="evenodd" clip-rule="evenodd" d="M2.83334 22.0833C2.83334 21.5771 3.24375 21.1667 3.75001 21.1667H20.25C20.7563 21.1667 21.1667 21.5771 21.1667 22.0833C21.1667 22.5896 20.7563 23 20.25 23H3.75001C3.24375 23 2.83334 22.5896 2.83334 22.0833Z" fill="black" style="fill:black;fill-opacity:1;"/>
<path fill-rule="evenodd" clip-rule="evenodd" d="M5.58334 1C6.0896 1 6.50001 1.41041 6.50001 1.91667V6.5C6.50001 7.51289 7.20628 8.66478 8.1018 9.67225C8.52806 10.1518 8.95717 10.5544 9.28072 10.8375C9.44185 10.9785 9.57515 11.0884 9.66665 11.1619C9.71236 11.1986 9.74751 11.2262 9.77036 11.2439L9.79512 11.2629L9.80001 11.2667C10.0306 11.4398 10.1667 11.7116 10.1667 12C10.1667 12.2884 10.031 12.5599 9.80042 12.733L9.79512 12.7371L9.77036 12.7561C9.74751 12.7738 9.71236 12.8014 9.66665 12.8381C9.57515 12.9116 9.44185 13.0215 9.28072 13.1625C8.95717 13.4456 8.52806 13.8482 8.1018 14.3278C7.20628 15.3352 6.50001 16.4871 6.50001 17.5V22.0833C6.50001 22.5896 6.0896 23 5.58334 23C5.07708 23 4.66668 22.5896 4.66668 22.0833V17.5C4.66668 15.7629 5.79374 14.1648 6.73155 13.1097C7.11955 12.6733 7.50576 12.2962 7.83039 12C7.50576 11.7038 7.11955 11.3267 6.73155 10.8903C5.79374 9.83522 4.66668 8.23711 4.66668 6.5V1.91667C4.66668 1.41041 5.07708 1 5.58334 1Z" fill="black" style="fill:black;fill-opacity:1;"/>
<path fill-rule="evenodd" clip-rule="evenodd" d="M18.4167 1C18.9229 1 19.3333 1.41041 19.3333 1.91667V6.5C19.3333 8.23711 18.2063 9.83522 17.2685 10.8903C16.8805 11.3267 16.4943 11.7038 16.1696 12C16.4943 12.2962 16.8805 12.6733 17.2685 13.1097C18.2063 14.1648 19.3333 15.7629 19.3333 17.5V22.0833C19.3333 22.5896 18.9229 23 18.4167 23C17.9104 23 17.5 22.5896 17.5 22.0833V17.5C17.5 16.4871 16.7937 15.3352 15.8982 14.3278C15.472 13.8482 15.0428 13.4456 14.7193 13.1625C14.5582 13.0215 14.4249 12.9116 14.3334 12.8381C14.2877 12.8014 14.2525 12.7738 14.2297 12.7561L14.2049 12.7371L14.2 12.7333C13.9694 12.5602 13.8333 12.2884 13.8333 12C13.8333 11.7117 13.969 11.4402 14.1995 11.267L14.2049 11.2629L14.2297 11.2439C14.2525 11.2262 14.2877 11.1986 14.3334 11.1619C14.4249 11.0884 14.5582 10.9785 14.7193 10.8375C15.0428 10.5544 15.472 10.1518 15.8982 9.67225C16.7937 8.66478 17.5 7.51289 17.5 6.5V1.91667C17.5 1.41041 17.9104 1 18.4167 1Z" fill="black" style="fill:black;fill-opacity:1;"/>
</svg>

<svg xmlns="http://www.w3.org/2000/svg" width="24" height="24" viewBox="0 0 24 24"><path d="M5.583 22.083S8.333 14.75 12 14.75s6.417 7.333 6.417 7.333z" opacity=".55"/><path fill-rule="evenodd" d="M2.833 1.917c0-.507.41-.917.917-.917h16.5a.917.917 0 1 1 0 1.833H3.75a.917.917 0 0 1-.917-.916m0 20.166c0-.506.41-.916.917-.916h16.5a.917.917 0 1 1 0 1.833H3.75a.917.917 0 0 1-.917-.917" clip-rule="evenodd"/><path fill-rule="evenodd" d="M5.583 1c.507 0 .917.41.917.917V6.5c0 1.013.706 2.165 1.602 3.172a13.5 13.5 0 0 0 1.668 1.572l.025.019.005.004a.917.917 0 0 1 0 1.466l-.005.004-.025.02-.103.081a13.5 13.5 0 0 0-1.565 1.49C7.206 15.335 6.5 16.488 6.5 17.5v4.583a.917.917 0 1 1-1.833 0V17.5c0-1.737 1.127-3.335 2.065-4.39A15 15 0 0 1 7.83 12a15 15 0 0 1-1.098-1.11C5.794 9.835 4.667 8.237 4.667 6.5V1.917c0-.507.41-.917.916-.917m12.834 0c.506 0 .916.41.916.917V6.5c0 1.737-1.127 3.335-2.064 4.39-.388.437-.775.814-1.1 1.11.325.296.712.673 1.1 1.11.937 1.055 2.064 2.653 2.064 4.39v4.583a.917.917 0 1 1-1.833 0V17.5c0-1.013-.706-2.165-1.602-3.172a13.5 13.5 0 0 0-1.668-1.572l-.025-.019-.005-.004a.917.917 0 0 1 0-1.466l.005-.004.025-.02.103-.081a13.5 13.5 0 0 0 1.565-1.49C16.794 8.665 17.5 7.512 17.5 6.5V1.917c0-.507.41-.917.917-.917" clip-rule="evenodd"/></svg>
